X:1

T:Robin Hood

M:6/4

L:1/8

S:Chappell – Popular Music of the Olden Time (1859)

Z:AK/Fiddler’s Companion

K:Gdor

G3A B2A2 B2A2 | B3A G2 ^F4 D2 | G3A B2 c4A2 |

B4 c2 d4 D2 | d4B2 c4A2 | B3A G2 ^F4 B2 |

A4G2 ^F3G A2 | (G6 G6) ||

 

                                   

ROBIN HOOD'S DANCE. English, Jig. A Minor. Standard tuning. One part. Published before 1730. Raven (English Country Dance Tunes), 1984; pg. 15.

